!!!OTL: Wiedersehen an der Bahre.
!!!OTL-incipit: 'Junger Prinz Napoleon
!!!ARE: Europa, Mitteleuropa, Deutschland / France, Elsass
!!!YOR: 3, S. 80
!!    ????
!!!SCT: Q1056G
!!!TXL: @@DE
!!!YEM: Copyright 1995, estate of Helmut Schaffrath.
**kern	**text
*ICvox	*
*M3/4	*
*k[f#]	*
*G:	*
!LO:TX:a:t=180(Elſaß)	!
{12dL	'Jun-
12eJ	.
12f#	-ger
=1	=1
4g	Prinʒ
8f#L	Na-
8eJ	.
8.g	-po-
16g	-le-
=2	=2
2d}	-on
{12dL	von
12e	.
12f#J	.
=3	=3
[8g	einundʒwanʒig
8g]	.
8f#	.
8e	.
4g	Jah-
=4	=4
4.d}	-ren,
{8g	haſt
8f#	mir
8a	ſchon
=5	=5
4dd	längſt
8cc	kei-
8dd	-nen
8.b	Brief
16b	ge-
=6	=6
4b	-ſchrie-
8a}	-ben,
{8g	mein
8f#	ar-
8a	-mes
=7	=7
4dd	Herʒ
8ccL	muß
8aJ	.
8aL	bre-
8ccJ	.
=8	=8
4b	-chen.'
8r}	.
{8g	haſt
8f#	mir
8a	ſchon
=9	=9
4dd	längſt
8cc	kei-
8dd	-nen
8.b	Brief
16b	ge-
=10	=10
4b	-ſchrie-
8a}	-ben,
{8g	mein
8f#	ar-
8a	-mes
=11	=11
4dd	Herʒ
8ccL	muß
8aJ	.
8aL	bre-
8ccJ	.
=12	=12
4b	-chen.'
4r}	.
==	==
!!!AGN: Ballade, Abschied, Enttaeuschung, Tod, Selbstmord
!! Eingeklammerte Note weggelassen. Melodievergleich mit Q0056,
!!    anderes Lied "Napoleonlied" .
!!!ONB: ESAC (Essen Associative Code) Database: BALLADE
!!!AMT: simple triple
!!!AIN: vox
!!!EED: Helmut Schaffrath
!!!EEV: 1.0
!!!source: Deutsche Volkslieder mit ihren Melodien. Herausgegeben vom Deutschen Volksliedarchiv. Dritter Band Balladen. Berlin 1954.
!!!page: 80
!!!ENC: Anna Maria Matuszewska
!!!EEV: 2025/02/18
*-	*-
